X:1
T:Title
%%score { 1 | ( 2 3 ) }
L:1/8
M:4/4
K:Db
V:1 treble nm="Grand Piano"
V:2 bass 
V:3 bass 
V:1
 z4 z2[Q:1/4=112] D2 | F2 F2 E2 D2 | F2 [FA]2 [FA]2 [GB]2 | [FA]2 F4 D2 |[M:3/4] [DF]2 [CE]4 | %5
[M:1/4] D2 |[M:4/4] F2 F2 E2 D2 | F2 [FA]2 [FA]2 [Fd]2 | c2 A2 B2 E2 |[M:3/4] [CA]4 B2 | %10
[M:1/4] c2 |[M:4/4] [Fd]4 [Gc]2 .[B,GB]2 | [DFA]4 [A,DF]2 [Fd]2 |[M:3/4] [Ec]2 [CE]2 [CG]2 | %14
[M:1/4] [CGB]2 |[M:3/4] [DGB]2 [DFA]2 [A,DF]2 |[M:1/4] [Gc]2 |[M:4/4] [Fd]4 [Gc]2 .[B,GB]2 | %18
 [DFA]4 [A,DF]2 [Fd]2 |[M:3/4] [Ec]2 [CE]2 [CG]2 |[M:1/4] C2 |[M:3/4] D6 |] %22
V:2
 z4 z2 [D,F,]2 | [D,A,D]2 [D,A,D]2 [D,G,D]2 [D,F,]2 | [D,A,D]2 [D,D]2 [D,D]2 [D,D]2 | %3
 [D,D]2 [D,A,D]4 [D,F,]2 |[M:3/4] [A,,A,]2 [A,,A,]4 |[M:1/4] [D,F,]2 | %6
[M:4/4] [D,A,D]2 [D,A,D]2 [D,G,D]2 [D,F,]2 | [D,A,D]2 [D,D]2 [D,D]2 [D,A,]2 | %8
 [E,A,E]2 [E,A,C]2 [E,=G,D]2 [E,G,D]2 |[M:3/4] z2 z2[K:treble] G2 |[M:1/4] [A,G]2 | %11
[M:4/4][K:bass] [D,A,]4 [D,A,]2 z C | D,4 D,2 [D,A,]2 |[M:3/4] [A,,A,]2 [A,,A,]2 [A,,A,]2 | %14
[M:1/4] A,,2 |[M:3/4] D,2 D,2 D,2 |[M:1/4] A,2 |[M:4/4] [D,A,]4 [D,A,]2 z C | D,4 D,2 [D,A,]2 | %19
[M:3/4] [A,,A,]2 [A,,A,]2 [A,,A,]2 |[M:1/4] [A,,G,A,]2 |[M:3/4] [D,F,A,]6 |] %22
V:3
 x8 | x8 | x8 | x8 |[M:3/4] x6 |[M:1/4] x2 |[M:4/4] x8 | x8 | x8 |[M:3/4] [A,,A,]6[K:treble] | %10
[M:1/4] x2 |[M:4/4][K:bass] z4 z2 D,2 | x8 |[M:3/4] x6 |[M:1/4] x2 |[M:3/4] x6 |[M:1/4] x2 | %17
[M:4/4] z4 z2 D,2 | x8 |[M:3/4] x6 |[M:1/4] x2 |[M:3/4] x6 |] %22

